telier/img/geo.svg

<svg width="10" height="12" viewBox="0 0 10 12" fill="none" xmlns="http://www.w3.org/2000/svg">
<path d="M4.99999 0.166668C2.43333 0.166668 0.333328 2.26667 0.333328 4.83333C0.333328 7.98334 4.41666 11.5417 4.59166 11.7167C4.70833 11.775 4.88333 11.8333 4.99999 11.8333C5.11666 11.8333 5.29166 11.775 5.40833 11.7167C5.58333 11.5417 9.66666 7.98334 9.66666 4.83333C9.66666 2.26667 7.56666 0.166668 4.99999 0.166668ZM4.99999 10.4917C3.77499 9.325 1.49999 6.81667 1.49999 4.83333C1.49999 2.90833 3.07499 1.33333 4.99999 1.33333C6.92499 1.33333 8.49999 2.90833 8.49999 4.83333C8.49999 6.75834 6.22499 9.325 4.99999 10.4917ZM4.99999 2.5C3.71666 2.5 2.66666 3.55 2.66666 4.83333C2.66666 6.11667 3.71666 7.16667 4.99999 7.16667C6.28333 7.16667 7.33333 6.11667 7.33333 4.83333C7.33333 3.55 6.28333 2.5 4.99999 2.5ZM4.99999 6C4.35833 6 3.83333 5.475 3.83333 4.83333C3.83333 4.19167 4.35833 3.66667 4.99999 3.66667C5.64166 3.66667 6.16666 4.19167 6.16666 4.83333C6.16666 5.475 5.64166 6 4.99999 6Z" fill="#242424"/>
</svg>

<svg width="10" height="12" fill="none" xmlns="http://www.w3.org/2000/svg"><path d="M5 .167A4.68 4.68 0 00.333 4.833c0 3.15 4.084 6.709 4.259 6.884.116.058.291.116.408.116.117 0 .292-.058.408-.116.175-.175 4.259-3.734 4.259-6.884A4.68 4.68 0 005 .167zm0 10.325C3.775 9.325 1.5 6.817 1.5 4.833a3.51 3.51 0 013.5-3.5 3.51 3.51 0 013.5 3.5c0 1.925-2.275 4.492-3.5 5.659zM5 2.5a2.34 2.34 0 00-2.333 2.333A2.34 2.34 0 005 7.167a2.34 2.34 0 002.333-2.334A2.34 2.34 0 005 2.5zM5 6a1.17 1.17 0 01-1.167-1.167A1.17 1.17 0 015 3.667a1.17 1.17 0 011.167 1.166A1.17 1.17 0 015 6z" fill="#242424"/></svg>
